X: 31
T:Salamanca Reel, The
M:4/4
L:1/8
Q:180
C:T. Reck
R:March
K:D
dB|"D"AD {A}D2 {G}{D}{F}{D}AD"G"BD|"D"Ad"A"cd "D"(3.g.f.e "A"dc|
"Em"BE {A}E {G}{E}{F}{E}"A"cE {A}E2{G}{E}|"Em"Be"Em7"ed "A"ce"A7"Ag|!
"Bm"fBBA B3{c}{B}{A}{B}g|"D"fd"A"ec "D"df"A7"ba|
"D"fd"A7"ae "D"dB"G"AG|"D"FA"A"EA "D"D2 "G"dB|!
"D"AF {A}F2 {E}{F} AF {A}F2{E}F}|Ad"A"cd "D"fe"A"dc|
"Em"BG {A}G2{F}{G} BG {A}G2{F}{G}|Be"Em7"ed "A"cd"A7"eg|!
"Bm"fBBA B3{c}{B}{A}{B}g|"D"fd"A"ec "D"df"A7"ag|
"D"fd "A7"(3.g.f.e "D"dA"G"BG|"D"FA"A"EA "D"D2::!
fg|"D"afdf "G"gb"A7"eg|"D"fdfe "A"dcAG|
"D"(3.F.G.A dc "G"de"A7"fg|"D"a3{b}{a}{g}{a}b afdf|!
a3{b a g a}f "G"g2 bg|"D"fd"A"ec "D"df"A7"ag|
"D"fd "A7"(3.g.f.e "D"dA"G"BG|"D"FA"A"EA "D"D2 fg|!
"D"afdf "G"gb"A7"eg|"D"fdfe dA"G"BG|
"D"(3.F.G.A "A"ce "D"defg|"D"afbf a2 "A"(3ABc|!
"D"defg afdf|"G"(3gfd "A"ec "D"df"A7"ag|
"D"fd "A"(3.g.f.e "D"dA"G"BA|"D"FA"A7"EA "D"D2:|
